X:1
T:James Gibb editions
T:The spacious firmament on high - Walford Davies
%%score [ ( 1 2 ) ( 3 4 ) ]
L:1/8
Q:1/4=84
M:4/4
K:A
V:1 treble nm="Midi_74"
V:2 treble 
V:3 bass nm="Midi_74"
V:4 bass 
V:1
"^Joseph Addison\n(1672-1719)""^The spacious firmament on high""^Henry Walford Davies\n(1869-1941)""^Firmament (D.L.M.)" E2 | %1
w: The|
w: Soon|
w: What|
 E3 E EF GA | c2 B2 A3 A | A2 GF E2 A2 | E3 D C2 E2 | E3 E EF GA | c2 B2 A3 A | A2 GF B2 G2 | %8
w: spa- cious fir\- * ma\- *|ment on high, With|all the * blue e-|the- real sky, And|span- gled heavens, * a *|shi- ning frame, Their|great O\- * ri- gi-|
w: as the eve\- * ning *|shades pre- vail, The|moon takes * up the|won- drous tale, And|night- ly to * the *|listen- ing earth Re-|peats the * sto- ry|
w: though in so\- * lemn *|si- lence all Move|round the * dark ter-|res- trial ball? What|though no re\- * al *|voice nor sound A-|midst their * ra- diant|
 F3 E E2 E2 | c3 B A2 E2 | c3 B A2 A2 | d3 c B2 F2 | d3 c B2 B2 | e2 G2 A2 Bc | E2 D2 C3 E | %15
w: nal pro- claim, Th'un-|wea- ried sun, from|day to day, Does|his Cre- a- tor's|power dis- play, And|pub- lish- es to *|ev- ery land The|
w: of her birth; While|all the stars that|round her burn, And|all the pla- nets,|in their turn, Con-|firm the ti- dings, *|as they roll, And|
w: orbs be found? In|rea- son's ear they|all re- joice, and|ut- ter forth a|glo- rious voice, For|e- ver sing- ing *|as they shine, 'The|
 A3 A A2 E2 ||[M:3/2] c2 BA (F4 E4) ||[M:4/4] (F4 E2 D2) | A8 |] %19
w: work of an al-|migh- ty * hand. *|||
w: spread the truth from|pole to * pole. *|||
w: hand that made us|is di\- * vine.' *|A\- * *|men.|
V:2
 E2 | C2 D2 E2 CE | A2 G2 F3 C | D2 D2 B,2 A,2 | C3 B, A,2 C2 | C2 D2 E2 CE | A2 G2 F2 E2 | %7
 ^D2 CD E2 E2 | E2 ^D2 E2 E2 | E3 E E2 E2 | E3 E E2 E2 | F3 F F2 F2 | F3 F F2 A2 | G3 F EF GA | %14
 C2 B,2 A,3 E | A3 A A2 E2 ||[M:3/2] A2 E2 (D4 C4) ||[M:4/4] A,8 | (D4 C4) |] %19
V:3
 E,2 | C2 G,2 A,2 C2 | E2 D2 C3 A, | F,2 G,A, G,2 E,2 | F,2 G,2 E,2 E,2 | C2 G,2 A,2 C2 | %6
 E2 D2 C2 A,2 | F,2 B,2 B,2 B,2 | C2 A,2 G,2 E,2 | G,3 G, A,2 E,2 | F,3 G, A,2 A,2 | %11
 ^A,3 A, B,2 D2 | ^A,2 G,A, B,2 F2 | E3 E E2 DC | A,2 B,2 C3 E, | A,3 A, A,2 E,2 || %16
[M:3/2] E2 DC A,8 ||[M:4/4] (A,4 G,2 F,2) | (F,4 E,4) |] %19
V:4
 E,2 | A,,2 B,,2 C,2 A,,2 | E,2 E,2 F,3 F, | B,,2 B,,2 D,2 C,2 | B,,2 E,2 A,,2 A,,2 | %5
 A,,2 B,,2 C,2 A,,2 | E,2 E,2 F,2 F,2 | B,,2 A,2 G,2 E,2 | A,,2 B,,2 E,2 E,2 | D,3 D, C,2 E,2 | %10
 E,3 D, C,2 C,2 | F,3 F, D,2 B,,2 | F,2 E,2 D,2 D,2 | D3 D C2 B,A, | F,2 G,2 A,3 E, | %15
 A,3 A, A,2 E,2 ||[M:3/2] A,,2 B,,C, D,4 A,,4 ||[M:4/4] D,8 | A,,8 |] %19

